icons/svg/contact-card_20.svg

<svg width="20" height="20" viewBox="0 0 20 20" fill="none" xmlns="http://www.w3.org/2000/svg">
<path fill-rule="evenodd" clip-rule="evenodd" d="M17.5 3H2.5C1.67157 3 1 3.67157 1 4.5V15.5C1 16.3284 1.67157 17 2.5 17H17.5C18.3284 17 19 16.3284 19 15.5V4.5C19 3.67157 18.3284 3 17.5 3ZM2.5 2C1.11929 2 0 3.11929 0 4.5V15.5C0 16.8807 1.11929 18 2.5 18H17.5C18.8807 18 20 16.8807 20 15.5V4.5C20 3.11929 18.8807 2 17.5 2H2.5ZM4.07928 13L4.24828 12.322C4.38828 11.764 4.88728 11.375 5.46128 11.375H8.53828C9.11329 11.375 9.61228 11.764 9.75128 12.322L9.92128 13H4.07928ZM7.00028 7C7.93128 7 8.68628 7.757 8.68628 8.688C8.68628 9.618 7.93128 10.375 7.00028 10.375C6.06828 10.375 5.31128 9.618 5.31128 8.688C5.31128 7.757 6.06828 7 7.00028 7ZM10.7213 12.08C10.5113 11.238 9.84426 10.616 9.02426 10.435C9.43226 9.963 9.68626 9.357 9.68626 8.688C9.68626 7.205 8.48126 6 7.00026 6C5.51726 6 4.31126 7.205 4.31126 8.688C4.31126 9.357 4.56826 9.963 4.97526 10.435C4.15626 10.616 3.48926 11.238 3.27926 12.08L3.02126 13.105C2.96826 13.322 3.01526 13.547 3.15226 13.724C3.28926 13.899 3.49626 14 3.71926 14H10.2813C10.5043 14 10.7103 13.899 10.8483 13.724C10.9843 13.547 11.0323 13.322 10.9773 13.107L10.7213 12.08ZM11.5 6C11.2239 6 11 6.22386 11 6.5C11 6.77614 11.2239 7 11.5 7H16.5C16.7761 7 17 6.77614 17 6.5C17 6.22386 16.7761 6 16.5 6H11.5ZM12 10C12 9.72386 12.2239 9.5 12.5 9.5H16.5C16.7761 9.5 17 9.72386 17 10C17 10.2761 16.7761 10.5 16.5 10.5H12.5C12.2239 10.5 12 10.2761 12 10ZM13.5 13C13.2239 13 13 13.2239 13 13.5C13 13.7761 13.2239 14 13.5 14H16.5C16.7761 14 17 13.7761 17 13.5C17 13.2239 16.7761 13 16.5 13H13.5Z" fill="#121212"/>
</svg>

<?xml version="1.0" encoding="utf-8"?>
<!-- Generator: Adobe Illustrator 23.0.2, SVG Export Plug-In . SVG Version: 6.00 Build 0)  -->
<svg version="1.1" id="Layer_1" xmlns="http://www.w3.org/2000/svg" xmlns:xlink="http://www.w3.org/1999/xlink" x="0px" y="0px"
	 viewBox="0 0 20 20" style="enable-background:new 0 0 20 20;" xml:space="preserve">
<style type="text/css">
	.st0{fill-rule:evenodd;clip-rule:evenodd;}
</style>
<g>
	<path class="st0" d="M17.5,2h-15C1.1,2,0,3.1,0,4.5v11C0,16.9,1.1,18,2.5,18h15c1.4,0,2.5-1.1,2.5-2.5v-11C20,3.1,18.9,2,17.5,2z
		 M19,15.5c0,0.8-0.7,1.5-1.5,1.5h-15C1.7,17,1,16.3,1,15.5v-11C1,3.7,1.7,3,2.5,3h15C18.3,3,19,3.7,19,4.5V15.5z"/>
	<path class="st0" d="M10.7,12.1c-0.2-0.8-0.9-1.5-1.7-1.6C9.4,10,9.7,9.4,9.7,8.7C9.7,7.2,8.5,6,7,6C5.5,6,4.3,7.2,4.3,8.7
		c0,0.7,0.3,1.3,0.7,1.7c-0.8,0.2-1.5,0.8-1.7,1.6l-0.3,1c-0.1,0.2,0,0.4,0.1,0.6C3.3,13.9,3.5,14,3.7,14h6.6c0.2,0,0.4-0.1,0.6-0.3
		c0.1-0.2,0.2-0.4,0.1-0.6L10.7,12.1z M7,7c0.9,0,1.7,0.8,1.7,1.7c0,0.9-0.8,1.7-1.7,1.7c-0.9,0-1.7-0.8-1.7-1.7C5.3,7.8,6.1,7,7,7z
		 M4.1,13l0.2-0.7c0.1-0.6,0.6-0.9,1.2-0.9h3.1c0.6,0,1.1,0.4,1.2,0.9L9.9,13H4.1z"/>
	<path class="st0" d="M16.5,6h-5C11.2,6,11,6.2,11,6.5S11.2,7,11.5,7h5C16.8,7,17,6.8,17,6.5S16.8,6,16.5,6z"/>
	<path class="st0" d="M16.5,9.5h-4C12.2,9.5,12,9.7,12,10s0.2,0.5,0.5,0.5h4c0.3,0,0.5-0.2,0.5-0.5S16.8,9.5,16.5,9.5z"/>
	<path class="st0" d="M16.5,13h-3c-0.3,0-0.5,0.2-0.5,0.5s0.2,0.5,0.5,0.5h3c0.3,0,0.5-0.2,0.5-0.5S16.8,13,16.5,13z"/>
</g>
</svg>
